assets/Desert island/Flat/desert_island_flat.svg

<svg width="32" height="32" viewBox="0 0 32 32" fill="none" xmlns="http://www.w3.org/2000/svg">
<path d="M18.5 8.34998H14.55C14.26 8.34998 14.03 8.57998 14.03 8.86998V25.95C14.03 26.24 14.26 26.47 14.55 26.47H18.5C18.79 26.47 19.02 26.24 19.02 25.95V8.87998C19.02 8.58998 18.79 8.34998 18.5 8.34998Z" fill="#593B39"/>
<path d="M28.7943 28H4.38574C6.99259 24.0303 11.4843 21.41 16.59 21.41C21.6957 21.41 26.1875 24.0303 28.7943 28Z" fill="#FF944C"/>
<path d="M15.92 8.48999H10.5801H6.05007C5.51007 8.48999 5.07007 7.99999 5.18007 7.47999C5.66007 4.93999 7.91007 2.98999 10.5801 2.98999C13.2825 2.98999 15.5525 4.97585 16.0001 7.55747C16.4476 4.97585 18.7176 2.98999 21.42 2.98999C24.09 2.98999 26.34 4.93999 26.82 7.47999C26.92 8.00999 26.49 8.48999 25.95 8.48999H21.42H16.0801H15.92Z" fill="#96C34A"/>
<path d="M15.75 9.1L12.68 12.17L9.61 15.24C9.24 15.6 8.62 15.57 8.33 15.14C6.93 13.1 7.14 10.25 8.95 8.43999C10.76 6.62999 13.6 6.42 15.65 7.81999C15.8609 7.96222 15.9756 8.18624 15.9952 8.42007C16.0227 8.20845 16.1309 8.00916 16.32 7.88004C18.31 6.52004 21.07 6.73004 22.83 8.48004C24.59 10.24 24.79 13 23.43 14.99C23.15 15.4 22.54 15.44 22.19 15.08L19.21 12.1L16.23 9.12004C16.0873 8.97734 16.0078 8.79142 15.9914 8.60226C15.9684 8.78492 15.8878 8.96223 15.75 9.1Z" fill="#608842"/>
<path d="M16.5 10.99C16.5 12.089 15.6091 12.98 14.51 12.98C13.411 12.98 12.52 12.089 12.52 10.99C12.52 9.89095 13.411 9 14.51 9C15.6091 9 16.5 9.89095 16.5 10.99ZM20.49 13C20.49 14.1046 19.5946 15 18.49 15C17.3854 15 16.49 14.1046 16.49 13C16.49 11.8954 17.3854 11 18.49 11C19.5946 11 20.49 11.8954 20.49 13Z" fill="#8B5C56"/>
<path d="M30.02 27.63C30.01 27.12 29.51 26.57 29 26.56C27.98 26.55 27.55 26 26.37 26C24.65 26 24.65 27 22.93 27C21.21 27 21.21 26 19.48 26C17.76 26 17.76 27 16.03 27C14.31 27 14.31 26 12.58 26C10.86 26 10.86 27 9.14 27C7.42 27 7.42 26 5.69 26C4.31 26 3.75 26.63 2.8 26.88C2.33 27.01 2 27.44 2 27.92C2 28.52 2.48 29 3.08 29H29.1C29.6 29 30.01 28.6 30.02 28.1C30.03 27.94 30.03 27.78 30.02 27.63Z" fill="#00A6ED"/>
</svg>

<svg xmlns="http://www.w3.org/2000/svg" width="32" height="32" fill="none"><path fill="#593B39" d="M18.5 8.35h-3.95c-.29 0-.52.23-.52.52v17.08c0 .29.23.52.52.52h3.95c.29 0 .52-.23.52-.52V8.88c0-.29-.23-.53-.52-.53Z"/><path fill="#FF944C" d="M28.794 28H4.386a14.575 14.575 0 0 1 12.204-6.59c5.106 0 9.598 2.62 12.204 6.59Z"/><path fill="#96C34A" d="M15.92 8.49H6.05c-.54 0-.98-.49-.87-1.01.48-2.54 2.73-4.49 5.4-4.49 2.703 0 4.973 1.986 5.42 4.567.448-2.581 2.718-4.567 5.42-4.567 2.67 0 4.92 1.95 5.4 4.49.1.53-.33 1.01-.87 1.01H15.92Z"/><path fill="#608842" d="m15.75 9.1-3.07 3.07-3.07 3.07c-.37.36-.99.33-1.28-.1-1.4-2.04-1.19-4.89.62-6.7 1.81-1.81 4.65-2.02 6.7-.62.21.142.326.366.345.6a.765.765 0 0 1 .325-.54c1.99-1.36 4.75-1.15 6.51.6 1.76 1.76 1.96 4.52.6 6.51-.28.41-.89.45-1.24.09l-2.98-2.98-2.98-2.98a.833.833 0 0 1-.239-.518.853.853 0 0 1-.241.498Z"/><path fill="#8B5C56" d="M16.5 10.99a1.99 1.99 0 1 1-3.98 0 1.99 1.99 0 0 1 3.98 0ZM20.49 13a2 2 0 1 1-4 0 2 2 0 0 1 4 0Z"/><path fill="#00A6ED" d="M30.02 27.63c-.01-.51-.51-1.06-1.02-1.07-1.02-.01-1.45-.56-2.63-.56-1.72 0-1.72 1-3.44 1s-1.72-1-3.45-1c-1.72 0-1.72 1-3.45 1-1.72 0-1.72-1-3.45-1-1.72 0-1.72 1-3.44 1s-1.72-1-3.45-1c-1.38 0-1.94.63-2.89.88-.47.13-.8.56-.8 1.04 0 .6.48 1.08 1.08 1.08H29.1c.5 0 .91-.4.92-.9.01-.16.01-.32 0-.47Z"/></svg>
